X: 1
T: Bj\"orsk\"ottens polska
R: polska
S: Nederg\aards Lars (a 19th century piper from Dalarna)
M: 3/4
L: 1/8
K: Am
|: E>^G A>G E>G \
| (3A^GA c2 A2 \
| (3cBc e>d B>c \
| d>B c4 :|
|: (3cBc e>d B>c \
| d>B c2 A2 \
| (3cBc e>d B>c \
| d>B c2 A2 \
| cd/c/ B>G E>G \
| B>^G A4 :|
